sirius_gui/src/main/resources/icons/circular-icons-svg/c-loadAll.svg

<?xml version="1.0" encoding="UTF-8" standalone="no"?>
<!-- Created with Inkscape (http://www.inkscape.org/) -->

<svg
   width="16.933332mm"
   height="16.933332mm"
   viewBox="0 0 16.933332 16.933332"
   version="1.1"
   id="svg20748"
   xml:space="preserve"
   inkscape:version="1.2 (dc2aeda, 2022-05-15)"
   sodipodi:docname="c-loadAll.svg"
   xmlns:inkscape="http://www.inkscape.org/namespaces/inkscape"
   xmlns:sodipodi="http://sodipodi.sourceforge.net/DTD/sodipodi-0.dtd"
   xmlns="http://www.w3.org/2000/svg"
   xmlns:svg="http://www.w3.org/2000/svg"
   xmlns:sketch="http://www.bohemiancoding.com/sketch/ns"><sodipodi:namedview
     id="namedview20750"
     pagecolor="#ffffff"
     bordercolor="#000000"
     borderopacity="0.25"
     inkscape:showpageshadow="2"
     inkscape:pageopacity="0.0"
     inkscape:pagecheckerboard="0"
     inkscape:deskcolor="#d1d1d1"
     inkscape:document-units="mm"
     showgrid="false"
     inkscape:zoom="2.0298973"
     inkscape:cx="-49.509894"
     inkscape:cy="30.050782"
     inkscape:window-width="1710"
     inkscape:window-height="982"
     inkscape:window-x="0"
     inkscape:window-y="39"
     inkscape:window-maximized="0"
     inkscape:current-layer="layer1" /><defs
     id="defs20745" /><g
     inkscape:label="Layer 1"
     inkscape:groupmode="layer"
     id="layer1"
     transform="translate(-173.06802,-113.89127)"><circle
       id="Oval-1"
       fill="#1191bb"
       sketch:type="MSShapeGroup"
       cx="181.53468"
       cy="122.35793"
       r="8.4666662"
       style="fill:#4da6bf;fill-opacity:1;fill-rule:evenodd;stroke:none;stroke-width:0.264583" /><g
       id="g26203"
       transform="matrix(0.37381082,0,0,0.37381082,151.58803,106.72432)"><g
         id="path26132"
         style="fill:#ffffff;fill-opacity:1"><path
           style="color:#000000;fill:#ffffff;fill-opacity:1;stroke-width:3.06705;stroke-linejoin:round;stroke-miterlimit:8.5;paint-order:markers fill stroke"
           d="M 65.152235,31.768444 H 90.055463"
           id="path26168" /><path
           style="color:#000000;fill:#ffffff;fill-opacity:1;stroke-linejoin:round;stroke-miterlimit:8.5;paint-order:markers fill stroke"
           d="m 65.152344,30.234375 v 3.068359 h 24.902343 v -3.068359 z"
           id="path26170" /></g><g
         id="path26134"
         style="fill:#ffffff;fill-opacity:1"><path
           style="color:#000000;fill:#ffffff;fill-opacity:1;stroke-width:3.06705;stroke-linejoin:round;stroke-miterlimit:8.5;paint-order:markers fill stroke"
           d="M 65.152235,51.87679 H 90.055463"
           id="path26150" /><path
           style="color:#000000;fill:#ffffff;fill-opacity:1;stroke-linejoin:round;stroke-miterlimit:8.5;paint-order:markers fill stroke"
           d="m 65.152344,50.34375 v 3.066406 H 90.054687 V 50.34375 Z"
           id="path26152" /></g><g
         id="path26136"
         style="fill:#ffffff;fill-opacity:1"><path
           style="color:#000000;fill:#ffffff;fill-opacity:1;stroke-width:3.06705;stroke-linejoin:round;stroke-miterlimit:8.5;paint-order:markers fill stroke"
           d="M 65.152235,45.174008 H 83.705463"
           id="path26156" /><path
           style="color:#000000;fill:#ffffff;fill-opacity:1;stroke-linejoin:round;stroke-miterlimit:8.5;paint-order:markers fill stroke"
           d="m 65.152344,43.640625 v 3.066406 h 18.552734 v -3.066406 z"
           id="path26158" /></g><g
         id="path26138"
         style="fill:#ffffff;fill-opacity:1"><path
           style="color:#000000;fill:#ffffff;fill-opacity:1;stroke-width:3.06705;stroke-linejoin:round;stroke-miterlimit:8.5;paint-order:markers fill stroke"
           d="M 65.152235,38.471226 H 83.705463"
           id="path26162" /><path
           style="color:#000000;fill:#ffffff;fill-opacity:1;stroke-linejoin:round;stroke-miterlimit:8.5;paint-order:markers fill stroke"
           d="m 65.152344,36.9375 v 3.066406 H 83.705078 V 36.9375 Z"
           id="path26164" /></g><g
         id="g26146"
         transform="translate(0,0.188007)"
         style="fill:#ffffff;fill-opacity:1"><g
           id="path26140"
           style="fill:#ffffff;fill-opacity:1"><path
             style="color:#000000;fill:#ffffff;fill-opacity:1;stroke-width:2;stroke-linejoin:round;stroke-miterlimit:8.5;paint-order:markers fill stroke"
             d="m 88.305508,41.63461 h 9.595968"
             id="path26174" /><path
             id="path26176"
             style="color:#000000;fill:#ffffff;fill-opacity:1;stroke-linejoin:round;stroke-miterlimit:8.5;paint-order:markers fill stroke"
             d="m 92.103422,36.83609 v 3.798734 h -3.798735 v 1.999878 h 3.798735 v 3.797184 H 94.1033 v -3.797184 h 3.799251 V 40.634824 H 94.1033 V 36.83609 Z" /></g><g
           id="path26142"
           style="fill:#ffffff;fill-opacity:1"><path
             style="color:#000000;fill:#ffffff;fill-opacity:1;stroke-width:2;stroke-linejoin:round;stroke-miterlimit:8.5;paint-order:markers fill stroke"
             d="m 93.103492,36.836626 v 9.595968"
             id="path26180" /></g></g></g></g></svg>

<?xml version="1.0" encoding="UTF-8"?>
<!-- Created with Inkscape (http://www.inkscape.org/) -->
<svg id="svg20748" width="16.933mm" height="16.933mm" version="1.1" viewBox="0 0 16.933 16.933" xml:space="preserve" xmlns="http://www.w3.org/2000/svg"><g id="layer1" transform="translate(-173.07 -113.89)"><circle id="Oval-1" cx="181.53" cy="122.36" r="8.4667" fill="#4da6bf" fill-rule="evenodd"/><g id="g26203" transform="matrix(.37381 0 0 .37381 151.59 106.72)" fill="#fff"><g id="path26132" stroke-linejoin="round" stroke-miterlimit="8.5"><path id="path26168" d="m65.152 31.768h24.903" color="#000000" stroke-width="3.067" style="paint-order:markers fill stroke"/><path id="path26170" d="m65.152 30.234v3.0684h24.902v-3.0684z" color="#000000" style="paint-order:markers fill stroke"/></g><g id="path26134" stroke-linejoin="round" stroke-miterlimit="8.5"><path id="path26150" d="m65.152 51.877h24.903" color="#000000" stroke-width="3.067" style="paint-order:markers fill stroke"/><path id="path26152" d="m65.152 50.344v3.0664h24.902v-3.0664z" color="#000000" style="paint-order:markers fill stroke"/></g><g id="path26136" stroke-linejoin="round" stroke-miterlimit="8.5"><path id="path26156" d="m65.152 45.174h18.553" color="#000000" stroke-width="3.067" style="paint-order:markers fill stroke"/><path id="path26158" d="m65.152 43.641v3.0664h18.553v-3.0664z" color="#000000" style="paint-order:markers fill stroke"/></g><g id="path26138" stroke-linejoin="round" stroke-miterlimit="8.5"><path id="path26162" d="m65.152 38.471h18.553" color="#000000" stroke-width="3.067" style="paint-order:markers fill stroke"/><path id="path26164" d="m65.152 36.938v3.0664h18.553v-3.0664z" color="#000000" style="paint-order:markers fill stroke"/></g><g id="g26146" transform="translate(0 .18801)"><g id="path26140" stroke-linejoin="round" stroke-miterlimit="8.5"><path id="path26174" d="m88.306 41.635h9.596" color="#000000" stroke-width="2" style="paint-order:markers fill stroke"/><path id="path26176" d="m92.103 36.836v3.7987h-3.7987v1.9999h3.7987v3.7972h1.9999v-3.7972h3.7993v-1.9999h-3.7993v-3.7987z" color="#000000" style="paint-order:markers fill stroke"/></g><g id="path26142"><path id="path26180" d="m93.103 36.837v9.596" color="#000000" fill="#fff" stroke-linejoin="round" stroke-miterlimit="8.5" stroke-width="2" style="paint-order:markers fill stroke"/></g></g></g></g></svg>
